ncols 128
nrows 128
xllcorner 0.0
yllcorner 0.0
cellsize 6.25
NODATA_value -9999
4 4 4 4 1 1 1 1 4 4 4 4 1 1 1 1 4 4 4 4 1 1 1 1 4 4 4 4 1 1 1 1 4 4 4 4 1 1 1 1 4 4 4 4 1 1 1 1 4 4 4 4 1 1 1 1 4 4 4 4 1 1 1 1 4 4 4 4 1 1 1 1 4 4 4 4 1 1 1 1 4 4 4 4 1 1 1 1 4 4 4 4 1 1 1 1 4 4 4 4 1 1 1 1 4 4 4 4 1 1 1 1 4 4 4 4 1 1 1 1 4 4 4 4 1 1 1 1
4 4 4 4 1 1 1 1 4 4 4 4 1 1 1 1 4 4 4 4 1 1 1 1 4 4 4 4 1 1 1 1 4 4 4 4 1 1 1 1 4 4 4 4 1 1 1 1 4 4 4 4 1 1 1 1 4 4 4 4 1 1 1 1 4 4 4 4 1 1 1 1 4 4 4 4 1 1 1 1 4 4 4 4 1 1 1 1 4 4 4 4 1 1 1 1 4 4 4 4 1 1 1 1 4 4 4 4 1 1 1 1 4 4 4 4 1 1 1 1 4 4 4 4 1 1 1 1
4 4 4 4 1 1 1 1 4 4 4 4 1 1 1 1 4 4 4 4 1 1 1 1 4 4 4 4 1 1 1 1 4 4 4 4 1 1 1 1 4 4 4 4 1 1 1 1 4 4 4 4 1 1 1 1 4 4 4 4 1 1 1 1 4 4 4 4 1 1 1 1 4 4 4 4 1 1 1 1 4 4 4 4 1 1 1 1 4 4 4 4 1 1 1 1 4 4 4 4 1 1 1 1 4 4 4 4 1 1 1 1 4 4 4 4 1 1 1 1 4 4 4 4 1 1 1 1
4 4 4 4 1 1 1 1 4 4 4 4 1 1 1 1 4 4 4 4 1 1 1 1 4 4 4 4 1 1 1 1 4 4 4 4 1 1 1 1 4 4 4 4 1 1 1 1 4 4 4 4 1 1 1 1 4 4 4 4 1 1 1 1 4 4 4 4 1 1 1 1 4 4 4 4 1 1 1 1 4 4 4 4 1 1 1 1 4 4 4 4 1 1 1 1 4 4 4 4 1 1 1 1 4 4 4 4 1 1 1 1 4 4 4 4 1 1 1 1 4 4 4 4 1 1 1 1
4 4 4 4 1 1 1 1 4 4 4 4 1 1 1 1 4 4 4 4 1 1 1 1 4 4 4 4 1 1 1 1 4 4 4 4 1 1 1 1 4 4 4 4 1 1 1 1 4 4 4 4 1 1 1 1 4 4 4 4 1 1 1 1 4 4 4 4 1 1 1 1 4 4 4 4 1 1 1 1 4 4 4 4 1 1 1 1 4 4 4 4 1 1 1 1 4 4 4 4 1 1 1 1 4 4 4 4 1 1 1 1 4 4 4 4 1 1 1 1 4 4 4 4 1 1 1 1
4 4 4 4 1 1 1 1 4 4 4 4 1 1 1 1 4 4 4 4 1 1 1 1 4 4 4 4 1 1 1 1 4 4 4 4 1 1 1 1 4 4 4 4 1 1 1 1 4 4 4 4 1 1 1 1 4 4 4 4 1 1 1 1 4 4 4 4 1 1 1 1 4 4 4 4 1 1 1 1 4 4 4 4 1 1 1 1 4 4 4 4 1 1 1 1 4 4 4 4 1 1 1 1 4 4 4 4 1 1 1 1 4 4 4 4 1 1 1 1 4 4 4 4 1 1 1 1
4 4 4 4 1 1 1 1 4 4 4 4 1 1 1 1 4 4 4 4 1 1 1 1 4 4 4 4 1 1 1 1 4 4 4 4 1 1 1 1 4 4 4 4 1 1 1 1 4 4 4 4 1 1 1 1 4 4 4 4 1 1 1 1 4 4 4 4 1 1 1 1 4 4 4 4 1 1 1 1 4 4 4 4 1 1 1 1 4 4 4 4 1 1 1 1 4 4 4 4 1 1 1 1 4 4 4 4 1 1 1 1 4 4 4 4 1 1 1 1 4 4 4 4 1 1 1 1
4 4 4 4 1 1 1 1 4 4 4 4 1 1 1 1 4 4 4 4 1 1 1 1 4 4 4 4 1 1 1 1 4 4 4 4 1 1 1 1 4 4 4 4 1 1 1 1 4 4 4 4 1 1 1 1 4 4 4 4 1 1 1 1 4 4 4 4 1 1 1 1 4 4 4 4 1 1 1 1 4 4 4 4 1 1 1 1 4 4 4 4 1 1 1 1 4 4 4 4 1 1 1 1 4 4 4 4 1 1 1 1 4 4 4 4 1 1 1 1 4 4 4 4 1 1 1 1
1 1 1 1 4 4 4 4 1 1 1 1 4 4 4 4 1 1 1 1 4 4 4 4 1 1 1 1 4 4 4 4 1 1 1 1 4 4 4 4 1 1 1 1 4 4 4 4 1 1 1 1 4 4 4 4 1 1 1 1 4 4 4 4 1 1 1 1 4 4 4 4 1 1 1 1 4 4 4 4 1 1 1 1 4 4 4 4 1 1 1 1 4 4 4 4 1 1 1 1 4 4 4 4 1 1 1 1 4 4 4 4 1 1 1 1 4 4 4 4 1 1 1 1 4 4 4 4
1 1 1 1 4 4 4 4 1 1 1 1 4 4 4 4 1 1 1 1 4 4 4 4 1 1 1 1 4 4 4 4 1 1 1 1 4 4 4 4 1 1 1 1 4 4 4 4 1 1 1 1 4 4 4 4 1 1 1 1 4 4 4 4 1 1 1 1 4 4 4 4 1 1 1 1 4 4 4 4 1 1 1 1 4 4 4 4 1 1 1 1 4 4 4 4 1 1 1 1 4 4 4 4 1 1 1 1 4 4 4 4 1 1 1 1 4 4 4 4 1 1 1 1 4 4 4 4
1 1 1 1 4 4 4 4 1 1 1 1 4 4 4 4 1 1 1 1 4 4 4 4 1 1 1 1 4 4 4 4 1 1 1 1 4 4 4 4 1 1 1 1 4 4 4 4 1 1 1 1 4 4 4 4 1 1 1 1 4 4 4 4 1 1 1 1 4 4 4 4 1 1 1 1 4 4 4 4 1 1 1 1 4 4 4 4 1 1 1 1 4 4 4 4 1 1 1 1 4 4 4 4 1 1 1 1 4 4 4 4 1 1 1 1 4 4 4 4 1 1 1 1 4 4 4 4
1 1 1 1 4 4 4 4 1 1 1 1 4 4 4 4 1 1 1 1 4 4 4 4 1 1 1 1 4 4 4 4 1 1 1 1 4 4 4 4 1 1 1 1 4 4 4 4 1 1 1 1 4 4 4 4 1 1 1 1 4 4 4 4 1 1 1 1 4 4 4 4 1 1 1 1 4 4 4 4 1 1 1 1 4 4 4 4 1 1 1 1 4 4 4 4 1 1 1 1 4 4 4 4 1 1 1 1 4 4 4 4 1 1 1 1 4 4 4 4 1 1 1 1 4 4 4 4
1 1 1 1 4 4 4 4 1 1 1 1 4 4 4 4 1 1 1 1 4 4 4 4 1 1 1 1 4 4 4 4 1 1 1 1 4 4 4 4 1 1 1 1 4 4 4 4 1 1 1 1 4 4 4 4 1 1 1 1 4 4 4 4 1 1 1 1 4 4 4 4 1 1 1 1 4 4 4 4 1 1 1 1 4 4 4 4 1 1 1 1 4 4 4 4 1 1 1 1 4 4 4 4 1 1 1 1 4 4 4 4 1 1 1 1 4 4 4 4 1 1 1 1 4 4 4 4
1 1 1 1 4 4 4 4 1 1 1 1 4 4 4 4 1 1 1 1 4 4 4 4 1 1 1 1 4 4 4 4 1 1 1 1 4 4 4 4 1 1 1 1 4 4 4 4 1 1 1 1 4 4 4 4 1 1 1 1 4 4 4 4 1 1 1 1 4 4 4 4 1 1 1 1 4 4 4 4 1 1 1 1 4 4 4 4 1 1 1 1 4 4 4 4 1 1 1 1 4 4 4 4 1 1 1 1 4 4 4 4 1 1 1 1 4 4 4 4 1 1 1 1 4 4 4 4
1 1 1 1 4 4 4 4 1 1 1 1 4 4 4 4 1 1 1 1 4 4 4 4 1 1 1 1 4 4 4 4 1 1 1 1 4 4 4 4 1 1 1 1 4 4 4 4 1 1 1 1 4 4 4 4 1 1 1 1 4 4 4 4 1 1 1 1 4 4 4 4 1 1 1 1 4 4 4 4 1 1 1 1 4 4 4 4 1 1 1 1 4 4 4 4 1 1 1 1 4 4 4 4 1 1 1 1 4 4 4 4 1 1 1 1 4 4 4 4 1 1 1 1 4 4 4 4
1 1 1 1 4 4 4 4 1 1 1 1 4 4 4 4 1 1 1 1 4 4 4 4 1 1 1 1 4 4 4 4 1 1 1 1 4 4 4 4 1 1 1 1 4 4 4 4 1 1 1 1 4 4 4 4 1 1 1 1 4 4 4 4 1 1 1 1 4 4 4 4 1 1 1 1 4 4 4 4 1 1 1 1 4 4 4 4 1 1 1 1 4 4 4 4 1 1 1 1 4 4 4 4 1 1 1 1 4 4 4 4 1 1 1 1 4 4 4 4 1 1 1 1 4 4 4 4
4 4 4 4 1 1 1 1 4 4 4 4 1 1 1 1 4 4 4 4 1 1 1 1 4 4 4 4 1 1 1 1 4 4 4 4 1 1 1 1 4 4 4 4 1 1 1 1 4 4 4 4 1 1 1 1 4 4 4 4 1 1 1 1 4 4 4 4 1 1 1 1 4 4 4 4 1 1 1 1 4 4 4 4 1 1 1 1 4 4 4 4 1 1 1 1 4 4 4 4 1 1 1 1 4 4 4 4 1 1 1 1 4 4 4 4 1 1 1 1 4 4 4 4 1 1 1 1
4 4 4 4 1 1 1 1 4 4 4 4 1 1 1 1 4 4 4 4 1 1 1 1 4 4 4 4 1 1 1 1 4 4 4 4 1 1 1 1 4 4 4 4 1 1 1 1 4 4 4 4 1 1 1 1 4 4 4 4 1 1 1 1 4 4 4 4 1 1 1 1 4 4 4 4 1 1 1 1 4 4 4 4 1 1 1 1 4 4 4 4 1 1 1 1 4 4 4 4 1 1 1 1 4 4 4 4 1 1 1 1 4 4 4 4 1 1 1 1 4 4 4 4 1 1 1 1
4 4 4 4 1 1 1 1 4 4 4 4 1 1 1 1 4 4 4 4 1 1 1 1 4 4 4 4 1 1 1 1 4 4 4 4 1 1 1 1 4 4 4 4 1 1 1 1 4 4 4 4 1 1 1 1 4 4 4 4 1 1 1 1 4 4 4 4 1 1 1 1 4 4 4 4 1 1 1 1 4 4 4 4 1 1 1 1 4 4 4 4 1 1 1 1 4 4 4 4 1 1 1 1 4 4 4 4 1 1 1 1 4 4 4 4 1 1 1 1 4 4 4 4 1 1 1 1
4 4 4 4 1 1 1 1 4 4 4 4 1 1 1 1 4 4 4 4 1 1 1 1 4 4 4 4 1 1 1 1 4 4 4 4 1 1 1 1 4 4 4 4 1 1 1 1 4 4 4 4 1 1 1 1 4 4 4 4 1 1 1 1 4 4 4 4 1 1 1 1 4 4 4 4 1 1 1 1 4 4 4 4 1 1 1 1 4 4 4 4 1 1 1 1 4 4 4 4 1 1 1 1 4 4 4 4 1 1 1 1 4 4 4 4 1 1 1 1 4 4 4 4 1 1 1 1
4 4 4 4 1 1 1 1 4 4 4 4 1 1 1 1 4 4 4 4 1 1 1 1 4 4 4 4 1 1 1 1 4 4 4 4 1 1 1 1 4 4 4 4 1 1 1 1 4 4 4 4 1 1 1 1 4 4 4 4 1 1 1 1 4 4 4 4 1 1 1 1 4 4 4 4 1 1 1 1 4 4 4 4 1 1 1 1 4 4 4 4 1 1 1 1 4 4 4 4 1 1 1 1 4 4 4 4 1 1 1 1 4 4 4 4 1 1 1 1 4 4 4 4 1 1 1 1
4 4 4 4 1 1 1 1 4 4 4 4 1 1 1 1 4 4 4 4 1 1 1 1 4 4 4 4 1 1 1 1 4 4 4 4 1 1 1 1 4 4 4 4 1 1 1 1 4 4 4 4 1 1 1 1 4 4 4 4 1 1 1 1 4 4 4 4 1 1 1 1 4 4 4 4 1 1 1 1 4 4 4 4 1 1 1 1 4 4 4 4 1 1 1 1 4 4 4 4 1 1 1 1 4 4 4 4 1 1 1 1 4 4 4 4 1 1 1 1 4 4 4 4 1 1 1 1
4 4 4 4 1 1 1 1 4 4 4 4 1 1 1 1 4 4 4 4 1 1 1 1 4 4 4 4 1 1 1 1 4 4 4 4 1 1 1 1 4 4 4 4 1 1 1 1 4 4 4 4 1 1 1 1 4 4 4 4 1 1 1 1 4 4 4 4 1 1 1 1 4 4 4 4 1 1 1 1 4 4 4 4 1 1 1 1 4 4 4 4 1 1 1 1 4 4 4 4 1 1 1 1 4 4 4 4 1 1 1 1 4 4 4 4 1 1 1 1 4 4 4 4 1 1 1 1
4 4 4 4 1 1 1 1 4 4 4 4 1 1 1 1 4 4 4 4 1 1 1 1 4 4 4 4 1 1 1 1 4 4 4 4 1 1 1 1 4 4 4 4 1 1 1 1 4 4 4 4 1 1 1 1 4 4 4 4 1 1 1 1 4 4 4 4 1 1 1 1 4 4 4 4 1 1 1 1 4 4 4 4 1 1 1 1 4 4 4 4 1 1 1 1 4 4 4 4 1 1 1 1 4 4 4 4 1 1 1 1 4 4 4 4 1 1 1 1 4 4 4 4 1 1 1 1
1 1 1 1 4 4 4 4 1 1 1 1 4 4 4 4 1 1 1 1 4 4 4 4 1 1 1 1 4 4 4 4 1 1 1 1 4 4 4 4 1 1 1 1 4 4 4 4 1 1 1 1 4 4 4 4 1 1 1 1 4 4 4 4 1 1 1 1 4 4 4 4 1 1 1 1 4 4 4 4 1 1 1 1 4 4 4 4 1 1 1 1 4 4 4 4 1 1 1 1 4 4 4 4 1 1 1 1 4 4 4 4 1 1 1 1 4 4 4 4 1 1 1 1 4 4 4 4
1 1 1 1 4 4 4 4 1 1 1 1 4 4 4 4 1 1 1 1 4 4 4 4 1 1 1 1 4 4 4 4 1 1 1 1 4 4 4 4 1 1 1 1 4 4 4 4 1 1 1 1 4 4 4 4 1 1 1 1 4 4 4 4 1 1 1 1 4 4 4 4 1 1 1 1 4 4 4 4 1 1 1 1 4 4 4 4 1 1 1 1 4 4 4 4 1 1 1 1 4 4 4 4 1 1 1 1 4 4 4 4 1 1 1 1 4 4 4 4 1 1 1 1 4 4 4 4
1 1 1 1 4 4 4 4 1 1 1 1 4 4 4 4 1 1 1 1 4 4 4 4 1 1 1 1 4 4 4 4 1 1 1 1 4 4 4 4 1 1 1 1 4 4 4 4 1 1 1 1 4 4 4 4 1 1 1 1 4 4 4 4 1 1 1 1 4 4 4 4 1 1 1 1 4 4 4 4 1 1 1 1 4 4 4 4 1 1 1 1 4 4 4 4 1 1 1 1 4 4 4 4 1 1 1 1 4 4 4 4 1 1 1 1 4 4 4 4 1 1 1 1 4 4 4 4
1 1 1 1 4 4 4 4 1 1 1 1 4 4 4 4 1 1 1 1 4 4 4 4 1 1 1 1 4 4 4 4 1 1 1 1 4 4 4 4 1 1 1 1 4 4 4 4 1 1 1 1 4 4 4 4 1 1 1 1 4 4 4 4 1 1 1 1 4 4 4 4 1 1 1 1 4 4 4 4 1 1 1 1 4 4 4 4 1 1 1 1 4 4 4 4 1 1 1 1 4 4 4 4 1 1 1 1 4 4 4 4 1 1 1 1 4 4 4 4 1 1 1 1 4 4 4 4
1 1 1 1 4 4 4 4 1 1 1 1 4 4 4 4 1 1 1 1 4 4 4 4 1 1 1 1 4 4 4 4 1 1 1 1 4 4 4 4 1 1 1 1 4 4 4 4 1 1 1 1 4 4 4 4 1 1 1 1 4 4 4 4 1 1 1 1 4 4 4 4 1 1 1 1 4 4 4 4 1 1 1 1 4 4 4 4 1 1 1 1 4 4 4 4 1 1 1 1 4 4 4 4 1 1 1 1 4 4 4 4 1 1 1 1 4 4 4 4 1 1 1 1 4 4 4 4
1 1 1 1 4 4 4 4 1 1 1 1 4 4 4 4 1 1 1 1 4 4 4 4 1 1 1 1 4 4 4 4 1 1 1 1 4 4 4 4 1 1 1 1 4 4 4 4 1 1 1 1 4 4 4 4 1 1 1 1 4 4 4 4 1 1 1 1 4 4 4 4 1 1 1 1 4 4 4 4 1 1 1 1 4 4 4 4 1 1 1 1 4 4 4 4 1 1 1 1 4 4 4 4 1 1 1 1 4 4 4 4 1 1 1 1 4 4 4 4 1 1 1 1 4 4 4 4
1 1 1 1 4 4 4 4 1 1 1 1 4 4 4 4 1 1 1 1 4 4 4 4 1 1 1 1 4 4 4 4 1 1 1 1 4 4 4 4 1 1 1 1 4 4 4 4 1 1 1 1 4 4 4 4 1 1 1 1 4 4 4 4 1 1 1 1 4 4 4 4 1 1 1 1 4 4 4 4 1 1 1 1 4 4 4 4 1 1 1 1 4 4 4 4 1 1 1 1 4 4 4 4 1 1 1 1 4 4 4 4 1 1 1 1 4 4 4 4 1 1 1 1 4 4 4 4
1 1 1 1 4 4 4 4 1 1 1 1 4 4 4 4 1 1 1 1 4 4 4 4 1 1 1 1 4 4 4 4 1 1 1 1 4 4 4 4 1 1 1 1 4 4 4 4 1 1 1 1 4 4 4 4 1 1 1 1 4 4 4 4 1 1 1 1 4 4 4 4 1 1 1 1 4 4 4 4 1 1 1 1 4 4 4 4 1 1 1 1 4 4 4 4 1 1 1 1 4 4 4 4 1 1 1 1 4 4 4 4 1 1 1 1 4 4 4 4 1 1 1 1 4 4 4 4
4 4 4 4 1 1 1 1 4 4 4 4 1 1 1 1 4 4 4 4 1 1 1 1 4 4 4 4 1 1 1 1 4 4 4 4 1 1 1 1 4 4 4 4 1 1 1 1 4 4 4 4 1 1 1 1 4 4 4 4 1 1 1 1 4 4 4 4 1 1 1 1 4 4 4 4 1 1 1 1 4 4 4 4 1 1 1 1 4 4 4 4 1 1 1 1 4 4 4 4 1 1 1 1 4 4 4 4 1 1 1 1 4 4 4 4 1 1 1 1 4 4 4 4 1 1 1 1
4 4 4 4 1 1 1 1 4 4 4 4 1 1 1 1 4 4 4 4 1 1 1 1 4 4 4 4 1 1 1 1 4 4 4 4 1 1 1 1 4 4 4 4 1 1 1 1 4 4 4 4 1 1 1 1 4 4 4 4 1 1 1 1 4 4 4 4 1 1 1 1 4 4 4 4 1 1 1 1 4 4 4 4 1 1 1 1 4 4 4 4 1 1 1 1 4 4 4 4 1 1 1 1 4 4 4 4 1 1 1 1 4 4 4 4 1 1 1 1 4 4 4 4 1 1 1 1
4 4 4 4 1 1 1 1 4 4 4 4 1 1 1 1 4 4 4 4 1 1 1 1 4 4 4 4 1 1 1 1 4 4 4 4 1 1 1 1 4 4 4 4 1 1 1 1 4 4 4 4 1 1 1 1 4 4 4 4 1 1 1 1 4 4 4 4 1 1 1 1 4 4 4 4 1 1 1 1 4 4 4 4 1 1 1 1 4 4 4 4 1 1 1 1 4 4 4 4 1 1 1 1 4 4 4 4 1 1 1 1 4 4 4 4 1 1 1 1 4 4 4 4 1 1 1 1
4 4 4 4 1 1 1 1 4 4 4 4 1 1 1 1 4 4 4 4 1 1 1 1 4 4 4 4 1 1 1 1 4 4 4 4 1 1 1 1 4 4 4 4 1 1 1 1 4 4 4 4 1 1 1 1 4 4 4 4 1 1 1 1 4 4 4 4 1 1 1 1 4 4 4 4 1 1 1 1 4 4 4 4 1 1 1 1 4 4 4 4 1 1 1 1 4 4 4 4 1 1 1 1 4 4 4 4 1 1 1 1 4 4 4 4 1 1 1 1 4 4 4 4 1 1 1 1
4 4 4 4 1 1 1 1 4 4 4 4 1 1 1 1 4 4 4 4 1 1 1 1 4 4 4 4 1 1 1 1 4 4 4 4 1 1 1 1 4 4 4 4 1 1 1 1 4 4 4 4 1 1 1 1 4 4 4 4 1 1 1 1 4 4 4 4 1 1 1 1 4 4 4 4 1 1 1 1 4 4 4 4 1 1 1 1 4 4 4 4 1 1 1 1 4 4 4 4 1 1 1 1 4 4 4 4 1 1 1 1 4 4 4 4 1 1 1 1 4 4 4 4 1 1 1 1
4 4 4 4 1 1 1 1 4 4 4 4 1 1 1 1 4 4 4 4 1 1 1 1 4 4 4 4 1 1 1 1 4 4 4 4 1 1 1 1 4 4 4 4 1 1 1 1 4 4 4 4 1 1 1 1 4 4 4 4 1 1 1 1 4 4 4 4 1 1 1 1 4 4 4 4 1 1 1 1 4 4 4 4 1 1 1 1 4 4 4 4 1 1 1 1 4 4 4 4 1 1 1 1 4 4 4 4 1 1 1 1 4 4 4 4 1 1 1 1 4 4 4 4 1 1 1 1
4 4 4 4 1 1 1 1 4 4 4 4 1 1 1 1 4 4 4 4 1 1 1 1 4 4 4 4 1 1 1 1 4 4 4 4 1 1 1 1 4 4 4 4 1 1 1 1 4 4 4 4 1 1 1 1 4 4 4 4 1 1 1 1 4 4 4 4 1 1 1 1 4 4 4 4 1 1 1 1 4 4 4 4 1 1 1 1 4 4 4 4 1 1 1 1 4 4 4 4 1 1 1 1 4 4 4 4 1 1 1 1 4 4 4 4 1 1 1 1 4 4 4 4 1 1 1 1
4 4 4 4 1 1 1 1 4 4 4 4 1 1 1 1 4 4 4 4 1 1 1 1 4 4 4 4 1 1 1 1 4 4 4 4 1 1 1 1 4 4 4 4 1 1 1 1 4 4 4 4 1 1 1 1 4 4 4 4 1 1 1 1 4 4 4 4 1 1 1 1 4 4 4 4 1 1 1 1 4 4 4 4 1 1 1 1 4 4 4 4 1 1 1 1 4 4 4 4 1 1 1 1 4 4 4 4 1 1 1 1 4 4 4 4 1 1 1 1 4 4 4 4 1 1 1 1
1 1 1 1 4 4 4 4 1 1 1 1 4 4 4 4 1 1 1 1 4 4 4 4 1 1 1 1 4 4 4 4 1 1 1 1 4 4 4 4 1 1 1 1 4 4 4 4 1 1 1 1 4 4 4 4 1 1 1 1 4 4 4 4 1 1 1 1 4 4 4 4 1 1 1 1 4 4 4 4 1 1 1 1 4 4 4 4 1 1 1 1 4 4 4 4 1 1 1 1 4 4 4 4 1 1 1 1 4 4 4 4 1 1 1 1 4 4 4 4 1 1 1 1 4 4 4 4
1 1 1 1 4 4 4 4 1 1 1 1 4 4 4 4 1 1 1 1 4 4 4 4 1 1 1 1 4 4 4 4 1 1 1 1 4 4 4 4 1 1 1 1 4 4 4 4 1 1 1 1 4 4 4 4 1 1 1 1 4 4 4 4 1 1 1 1 4 4 4 4 1 1 1 1 4 4 4 4 1 1 1 1 4 4 4 4 1 1 1 1 4 4 4 4 1 1 1 1 4 4 4 4 1 1 1 1 4 4 4 4 1 1 1 1 4 4 4 4 1 1 1 1 4 4 4 4
1 1 1 1 4 4 4 4 1 1 1 1 4 4 4 4 1 1 1 1 4 4 4 4 1 1 1 1 4 4 4 4 1 1 1 1 4 4 4 4 1 1 1 1 4 4 4 4 1 1 1 1 4 4 4 4 1 1 1 1 4 4 4 4 1 1 1 1 4 4 4 4 1 1 1 1 4 4 4 4 1 1 1 1 4 4 4 4 1 1 1 1 4 4 4 4 1 1 1 1 4 4 4 4 1 1 1 1 4 4 4 4 1 1 1 1 4 4 4 4 1 1 1 1 4 4 4 4
1 1 1 1 4 4 4 4 1 1 1 1 4 4 4 4 1 1 1 1 4 4 4 4 1 1 1 1 4 4 4 4 1 1 1 1 4 4 4 4 1 1 1 1 4 4 4 4 1 1 1 1 4 4 4 4 1 1 1 1 4 4 4 4 1 1 1 1 4 4 4 4 1 1 1 1 4 4 4 4 1 1 1 1 4 4 4 4 1 1 1 1 4 4 4 4 1 1 1 1 4 4 4 4 1 1 1 1 4 4 4 4 1 1 1 1 4 4 4 4 1 1 1 1 4 4 4 4
1 1 1 1 4 4 4 4 1 1 1 1 4 4 4 4 1 1 1 1 4 4 4 4 1 1 1 1 4 4 4 4 1 1 1 1 4 4 4 4 1 1 1 1 4 4 4 4 1 1 1 1 4 4 4 4 1 1 1 1 4 4 4 4 1 1 1 1 4 4 4 4 1 1 1 1 4 4 4 4 1 1 1 1 4 4 4 4 1 1 1 1 4 4 4 4 1 1 1 1 4 4 4 4 1 1 1 1 4 4 4 4 1 1 1 1 4 4 4 4 1 1 1 1 4 4 4 4
1 1 1 1 4 4 4 4 1 1 1 1 4 4 4 4 1 1 1 1 4 4 4 4 1 1 1 1 4 4 4 4 1 1 1 1 4 4 4 4 1 1 1 1 4 4 4 4 1 1 1 1 4 4 4 4 1 1 1 1 4 4 4 4 1 1 1 1 4 4 4 4 1 1 1 1 4 4 4 4 1 1 1 1 4 4 4 4 1 1 1 1 4 4 4 4 1 1 1 1 4 4 4 4 1 1 1 1 4 4 4 4 1 1 1 1 4 4 4 4 1 1 1 1 4 4 4 4
1 1 1 1 4 4 4 4 1 1 1 1 4 4 4 4 1 1 1 1 4 4 4 4 1 1 1 1 4 4 4 4 1 1 1 1 4 4 4 4 1 1 1 1 4 4 4 4 1 1 1 1 4 4 4 4 1 1 1 1 4 4 4 4 1 1 1 1 4 4 4 4 1 1 1 1 4 4 4 4 1 1 1 1 4 4 4 4 1 1 1 1 4 4 4 4 1 1 1 1 4 4 4 4 1 1 1 1 4 4 4 4 1 1 1 1 4 4 4 4 1 1 1 1 4 4 4 4
1 1 1 1 4 4 4 4 1 1 1 1 4 4 4 4 1 1 1 1 4 4 4 4 1 1 1 1 4 4 4 4 1 1 1 1 4 4 4 4 1 1 1 1 4 4 4 4 1 1 1 1 4 4 4 4 1 1 1 1 4 4 4 4 1 1 1 1 4 4 4 4 1 1 1 1 4 4 4 4 1 1 1 1 4 4 4 4 1 1 1 1 4 4 4 4 1 1 1 1 4 4 4 4 1 1 1 1 4 4 4 4 1 1 1 1 4 4 4 4 1 1 1 1 4 4 4 4
4 4 4 4 1 1 1 1 4 4 4 4 1 1 1 1 4 4 4 4 1 1 1 1 4 4 4 4 1 1 1 1 4 4 4 4 1 1 1 1 4 4 4 4 1 1 1 1 4 4 4 4 1 1 1 1 4 4 4 4 1 1 1 1 4 4 4 4 1 1 1 1 4 4 4 4 1 1 1 1 4 4 4 4 1 1 1 1 4 4 4 4 1 1 1 1 4 4 4 4 1 1 1 1 4 4 4 4 1 1 1 1 4 4 4 4 1 1 1 1 4 4 4 4 1 1 1 1
4 4 4 4 1 1 1 1 4 4 4 4 1 1 1 1 4 4 4 4 1 1 1 1 4 4 4 4 1 1 1 1 4 4 4 4 1 1 1 1 4 4 4 4 1 1 1 1 4 4 4 4 1 1 1 1 4 4 4 4 1 1 1 1 4 4 4 4 1 1 1 1 4 4 4 4 1 1 1 1 4 4 4 4 1 1 1 1 4 4 4 4 1 1 1 1 4 4 4 4 1 1 1 1 4 4 4 4 1 1 1 1 4 4 4 4 1 1 1 1 4 4 4 4 1 1 1 1
4 4 4 4 1 1 1 1 4 4 4 4 1 1 1 1 4 4 4 4 1 1 1 1 4 4 4 4 1 1 1 1 4 4 4 4 1 1 1 1 4 4 4 4 1 1 1 1 4 4 4 4 1 1 1 1 4 4 4 4 1 1 1 1 4 4 4 4 1 1 1 1 4 4 4 4 1 1 1 1 4 4 4 4 1 1 1 1 4 4 4 4 1 1 1 1 4 4 4 4 1 1 1 1 4 4 4 4 1 1 1 1 4 4 4 4 1 1 1 1 4 4 4 4 1 1 1 1
4 4 4 4 1 1 1 1 4 4 4 4 1 1 1 1 4 4 4 4 1 1 1 1 4 4 4 4 1 1 1 1 4 4 4 4 1 1 1 1 4 4 4 4 1 1 1 1 4 4 4 4 1 1 1 1 4 4 4 4 1 1 1 1 4 4 4 4 1 1 1 1 4 4 4 4 1 1 1 1 4 4 4 4 1 1 1 1 4 4 4 4 1 1 1 1 4 4 4 4 1 1 1 1 4 4 4 4 1 1 1 1 4 4 4 4 1 1 1 1 4 4 4 4 1 1 1 1
4 4 4 4 1 1 1 1 4 4 4 4 1 1 1 1 4 4 4 4 1 1 1 1 4 4 4 4 1 1 1 1 4 4 4 4 1 1 1 1 4 4 4 4 1 1 1 1 4 4 4 4 1 1 1 1 4 4 4 4 1 1 1 1 4 4 4 4 1 1 1 1 4 4 4 4 1 1 1 1 4 4 4 4 1 1 1 1 4 4 4 4 1 1 1 1 4 4 4 4 1 1 1 1 4 4 4 4 1 1 1 1 4 4 4 4 1 1 1 1 4 4 4 4 1 1 1 1
4 4 4 4 1 1 1 1 4 4 4 4 1 1 1 1 4 4 4 4 1 1 1 1 4 4 4 4 1 1 1 1 4 4 4 4 1 1 1 1 4 4 4 4 1 1 1 1 4 4 4 4 1 1 1 1 4 4 4 4 1 1 1 1 4 4 4 4 1 1 1 1 4 4 4 4 1 1 1 1 4 4 4 4 1 1 1 1 4 4 4 4 1 1 1 1 4 4 4 4 1 1 1 1 4 4 4 4 1 1 1 1 4 4 4 4 1 1 1 1 4 4 4 4 1 1 1 1
4 4 4 4 1 1 1 1 4 4 4 4 1 1 1 1 4 4 4 4 1 1 1 1 4 4 4 4 1 1 1 1 4 4 4 4 1 1 1 1 4 4 4 4 1 1 1 1 4 4 4 4 1 1 1 1 4 4 4 4 1 1 1 1 4 4 4 4 1 1 1 1 4 4 4 4 1 1 1 1 4 4 4 4 1 1 1 1 4 4 4 4 1 1 1 1 4 4 4 4 1 1 1 1 4 4 4 4 1 1 1 1 4 4 4 4 1 1 1 1 4 4 4 4 1 1 1 1
4 4 4 4 1 1 1 1 4 4 4 4 1 1 1 1 4 4 4 4 1 1 1 1 4 4 4 4 1 1 1 1 4 4 4 4 1 1 1 1 4 4 4 4 1 1 1 1 4 4 4 4 1 1 1 1 4 4 4 4 1 1 1 1 4 4 4 4 1 1 1 1 4 4 4 4 1 1 1 1 4 4 4 4 1 1 1 1 4 4 4 4 1 1 1 1 4 4 4 4 1 1 1 1 4 4 4 4 1 1 1 1 4 4 4 4 1 1 1 1 4 4 4 4 1 1 1 1
1 1 1 1 4 4 4 4 1 1 1 1 4 4 4 4 1 1 1 1 4 4 4 4 1 1 1 1 4 4 4 4 1 1 1 1 4 4 4 4 1 1 1 1 4 4 4 4 1 1 1 1 4 4 4 4 1 1 1 1 4 4 4 4 1 1 1 1 4 4 4 4 1 1 1 1 4 4 4 4 1 1 1 1 4 4 4 4 1 1 1 1 4 4 4 4 1 1 1 1 4 4 4 4 1 1 1 1 4 4 4 4 1 1 1 1 4 4 4 4 1 1 1 1 4 4 4 4
1 1 1 1 4 4 4 4 1 1 1 1 4 4 4 4 1 1 1 1 4 4 4 4 1 1 1 1 4 4 4 4 1 1 1 1 4 4 4 4 1 1 1 1 4 4 4 4 1 1 1 1 4 4 4 4 1 1 1 1 4 4 4 4 1 1 1 1 4 4 4 4 1 1 1 1 4 4 4 4 1 1 1 1 4 4 4 4 1 1 1 1 4 4 4 4 1 1 1 1 4 4 4 4 1 1 1 1 4 4 4 4 1 1 1 1 4 4 4 4 1 1 1 1 4 4 4 4
1 1 1 1 4 4 4 4 1 1 1 1 4 4 4 4 1 1 1 1 4 4 4 4 1 1 1 1 4 4 4 4 1 1 1 1 4 4 4 4 1 1 1 1 4 4 4 4 1 1 1 1 4 4 4 4 1 1 1 1 4 4 4 4 1 1 1 1 4 4 4 4 1 1 1 1 4 4 4 4 1 1 1 1 4 4 4 4 1 1 1 1 4 4 4 4 1 1 1 1 4 4 4 4 1 1 1 1 4 4 4 4 1 1 1 1 4 4 4 4 1 1 1 1 4 4 4 4
1 1 1 1 4 4 4 4 1 1 1 1 4 4 4 4 1 1 1 1 4 4 4 4 1 1 1 1 4 4 4 4 1 1 1 1 4 4 4 4 1 1 1 1 4 4 4 4 1 1 1 1 4 4 4 4 1 1 1 1 4 4 4 4 1 1 1 1 4 4 4 4 1 1 1 1 4 4 4 4 1 1 1 1 4 4 4 4 1 1 1 1 4 4 4 4 1 1 1 1 4 4 4 4 1 1 1 1 4 4 4 4 1 1 1 1 4 4 4 4 1 1 1 1 4 4 4 4
1 1 1 1 4 4 4 4 1 1 1 1 4 4 4 4 1 1 1 1 4 4 4 4 1 1 1 1 4 4 4 4 1 1 1 1 4 4 4 4 1 1 1 1 4 4 4 4 1 1 1 1 4 4 4 4 1 1 1 1 4 4 4 4 1 1 1 1 4 4 4 4 1 1 1 1 4 4 4 4 1 1 1 1 4 4 4 4 1 1 1 1 4 4 4 4 1 1 1 1 4 4 4 4 1 1 1 1 4 4 4 4 1 1 1 1 4 4 4 4 1 1 1 1 4 4 4 4
1 1 1 1 4 4 4 4 1 1 1 1 4 4 4 4 1 1 1 1 4 4 4 4 1 1 1 1 4 4 4 4 1 1 1 1 4 4 4 4 1 1 1 1 4 4 4 4 1 1 1 1 4 4 4 4 1 1 1 1 4 4 4 4 1 1 1 1 4 4 4 4 1 1 1 1 4 4 4 4 1 1 1 1 4 4 4 4 1 1 1 1 4 4 4 4 1 1 1 1 4 4 4 4 1 1 1 1 4 4 4 4 1 1 1 1 4 4 4 4 1 1 1 1 4 4 4 4
1 1 1 1 4 4 4 4 1 1 1 1 4 4 4 4 1 1 1 1 4 4 4 4 1 1 1 1 4 4 4 4 1 1 1 1 4 4 4 4 1 1 1 1 4 4 4 4 1 1 1 1 4 4 4 4 1 1 1 1 4 4 4 4 1 1 1 1 4 4 4 4 1 1 1 1 4 4 4 4 1 1 1 1 4 4 4 4 1 1 1 1 4 4 4 4 1 1 1 1 4 4 4 4 1 1 1 1 4 4 4 4 1 1 1 1 4 4 4 4 1 1 1 1 4 4 4 4
1 1 1 1 4 4 4 4 1 1 1 1 4 4 4 4 1 1 1 1 4 4 4 4 1 1 1 1 4 4 4 4 1 1 1 1 4 4 4 4 1 1 1 1 4 4 4 4 1 1 1 1 4 4 4 4 1 1 1 1 4 4 4 4 1 1 1 1 4 4 4 4 1 1 1 1 4 4 4 4 1 1 1 1 4 4 4 4 1 1 1 1 4 4 4 4 1 1 1 1 4 4 4 4 1 1 1 1 4 4 4 4 1 1 1 1 4 4 4 4 1 1 1 1 4 4 4 4
4 4 4 4 1 1 1 1 4 4 4 4 1 1 1 1 4 4 4 4 1 1 1 1 4 4 4 4 1 1 1 1 4 4 4 4 1 1 1 1 4 4 4 4 1 1 1 1 4 4 4 4 1 1 1 1 4 4 4 4 1 1 1 1 4 4 4 4 1 1 1 1 4 4 4 4 1 1 1 1 4 4 4 4 1 1 1 1 4 4 4 4 1 1 1 1 4 4 4 4 1 1 1 1 4 4 4 4 1 1 1 1 4 4 4 4 1 1 1 1 4 4 4 4 1 1 1 1
4 4 4 4 1 1 1 1 4 4 4 4 1 1 1 1 4 4 4 4 1 1 1 1 4 4 4 4 1 1 1 1 4 4 4 4 1 1 1 1 4 4 4 4 1 1 1 1 4 4 4 4 1 1 1 1 4 4 4 4 1 1 1 1 4 4 4 4 1 1 1 1 4 4 4 4 1 1 1 1 4 4 4 4 1 1 1 1 4 4 4 4 1 1 1 1 4 4 4 4 1 1 1 1 4 4 4 4 1 1 1 1 4 4 4 4 1 1 1 1 4 4 4 4 1 1 1 1
4 4 4 4 1 1 1 1 4 4 4 4 1 1 1 1 4 4 4 4 1 1 1 1 4 4 4 4 1 1 1 1 4 4 4 4 1 1 1 1 4 4 4 4 1 1 1 1 4 4 4 4 1 1 1 1 4 4 4 4 1 1 1 1 4 4 4 4 1 1 1 1 4 4 4 4 1 1 1 1 4 4 4 4 1 1 1 1 4 4 4 4 1 1 1 1 4 4 4 4 1 1 1 1 4 4 4 4 1 1 1 1 4 4 4 4 1 1 1 1 4 4 4 4 1 1 1 1
4 4 4 4 1 1 1 1 4 4 4 4 1 1 1 1 4 4 4 4 1 1 1 1 4 4 4 4 1 1 1 1 4 4 4 4 1 1 1 1 4 4 4 4 1 1 1 1 4 4 4 4 1 1 1 1 4 4 4 4 1 1 1 1 4 4 4 4 1 1 1 1 4 4 4 4 1 1 1 1 4 4 4 4 1 1 1 1 4 4 4 4 1 1 1 1 4 4 4 4 1 1 1 1 4 4 4 4 1 1 1 1 4 4 4 4 1 1 1 1 4 4 4 4 1 1 1 1
4 4 4 4 1 1 1 1 4 4 4 4 1 1 1 1 4 4 4 4 1 1 1 1 4 4 4 4 1 1 1 1 4 4 4 4 1 1 1 1 4 4 4 4 1 1 1 1 4 4 4 4 1 1 1 1 4 4 4 4 1 1 1 1 4 4 4 4 1 1 1 1 4 4 4 4 1 1 1 1 4 4 4 4 1 1 1 1 4 4 4 4 1 1 1 1 4 4 4 4 1 1 1 1 4 4 4 4 1 1 1 1 4 4 4 4 1 1 1 1 4 4 4 4 1 1 1 1
4 4 4 4 1 1 1 1 4 4 4 4 1 1 1 1 4 4 4 4 1 1 1 1 4 4 4 4 1 1 1 1 4 4 4 4 1 1 1 1 4 4 4 4 1 1 1 1 4 4 4 4 1 1 1 1 4 4 4 4 1 1 1 1 4 4 4 4 1 1 1 1 4 4 4 4 1 1 1 1 4 4 4 4 1 1 1 1 4 4 4 4 1 1 1 1 4 4 4 4 1 1 1 1 4 4 4 4 1 1 1 1 4 4 4 4 1 1 1 1 4 4 4 4 1 1 1 1
4 4 4 4 1 1 1 1 4 4 4 4 1 1 1 1 4 4 4 4 1 1 1 1 4 4 4 4 1 1 1 1 4 4 4 4 1 1 1 1 4 4 4 4 1 1 1 1 4 4 4 4 1 1 1 1 4 4 4 4 1 1 1 1 4 4 4 4 1 1 1 1 4 4 4 4 1 1 1 1 4 4 4 4 1 1 1 1 4 4 4 4 1 1 1 1 4 4 4 4 1 1 1 1 4 4 4 4 1 1 1 1 4 4 4 4 1 1 1 1 4 4 4 4 1 1 1 1
4 4 4 4 1 1 1 1 4 4 4 4 1 1 1 1 4 4 4 4 1 1 1 1 4 4 4 4 1 1 1 1 4 4 4 4 1 1 1 1 4 4 4 4 1 1 1 1 4 4 4 4 1 1 1 1 4 4 4 4 1 1 1 1 4 4 4 4 1 1 1 1 4 4 4 4 1 1 1 1 4 4 4 4 1 1 1 1 4 4 4 4 1 1 1 1 4 4 4 4 1 1 1 1 4 4 4 4 1 1 1 1 4 4 4 4 1 1 1 1 4 4 4 4 1 1 1 1
1 1 1 1 4 4 4 4 1 1 1 1 4 4 4 4 1 1 1 1 4 4 4 4 1 1 1 1 4 4 4 4 1 1 1 1 4 4 4 4 1 1 1 1 4 4 4 4 1 1 1 1 4 4 4 4 1 1 1 1 4 4 4 4 1 1 1 1 4 4 4 4 1 1 1 1 4 4 4 4 1 1 1 1 4 4 4 4 1 1 1 1 4 4 4 4 1 1 1 1 4 4 4 4 1 1 1 1 4 4 4 4 1 1 1 1 4 4 4 4 1 1 1 1 4 4 4 4
1 1 1 1 4 4 4 4 1 1 1 1 4 4 4 4 1 1 1 1 4 4 4 4 1 1 1 1 4 4 4 4 1 1 1 1 4 4 4 4 1 1 1 1 4 4 4 4 1 1 1 1 4 4 4 4 1 1 1 1 4 4 4 4 1 1 1 1 4 4 4 4 1 1 1 1 4 4 4 4 1 1 1 1 4 4 4 4 1 1 1 1 4 4 4 4 1 1 1 1 4 4 4 4 1 1 1 1 4 4 4 4 1 1 1 1 4 4 4 4 1 1 1 1 4 4 4 4
1 1 1 1 4 4 4 4 1 1 1 1 4 4 4 4 1 1 1 1 4 4 4 4 1 1 1 1 4 4 4 4 1 1 1 1 4 4 4 4 1 1 1 1 4 4 4 4 1 1 1 1 4 4 4 4 1 1 1 1 4 4 4 4 1 1 1 1 4 4 4 4 1 1 1 1 4 4 4 4 1 1 1 1 4 4 4 4 1 1 1 1 4 4 4 4 1 1 1 1 4 4 4 4 1 1 1 1 4 4 4 4 1 1 1 1 4 4 4 4 1 1 1 1 4 4 4 4
1 1 1 1 4 4 4 4 1 1 1 1 4 4 4 4 1 1 1 1 4 4 4 4 1 1 1 1 4 4 4 4 1 1 1 1 4 4 4 4 1 1 1 1 4 4 4 4 1 1 1 1 4 4 4 4 1 1 1 1 4 4 4 4 1 1 1 1 4 4 4 4 1 1 1 1 4 4 4 4 1 1 1 1 4 4 4 4 1 1 1 1 4 4 4 4 1 1 1 1 4 4 4 4 1 1 1 1 4 4 4 4 1 1 1 1 4 4 4 4 1 1 1 1 4 4 4 4
1 1 1 1 4 4 4 4 1 1 1 1 4 4 4 4 1 1 1 1 4 4 4 4 1 1 1 1 4 4 4 4 1 1 1 1 4 4 4 4 1 1 1 1 4 4 4 4 1 1 1 1 4 4 4 4 1 1 1 1 4 4 4 4 1 1 1 1 4 4 4 4 1 1 1 1 4 4 4 4 1 1 1 1 4 4 4 4 1 1 1 1 4 4 4 4 1 1 1 1 4 4 4 4 1 1 1 1 4 4 4 4 1 1 1 1 4 4 4 4 1 1 1 1 4 4 4 4
1 1 1 1 4 4 4 4 1 1 1 1 4 4 4 4 1 1 1 1 4 4 4 4 1 1 1 1 4 4 4 4 1 1 1 1 4 4 4 4 1 1 1 1 4 4 4 4 1 1 1 1 4 4 4 4 1 1 1 1 4 4 4 4 1 1 1 1 4 4 4 4 1 1 1 1 4 4 4 4 1 1 1 1 4 4 4 4 1 1 1 1 4 4 4 4 1 1 1 1 4 4 4 4 1 1 1 1 4 4 4 4 1 1 1 1 4 4 4 4 1 1 1 1 4 4 4 4
1 1 1 1 4 4 4 4 1 1 1 1 4 4 4 4 1 1 1 1 4 4 4 4 1 1 1 1 4 4 4 4 1 1 1 1 4 4 4 4 1 1 1 1 4 4 4 4 1 1 1 1 4 4 4 4 1 1 1 1 4 4 4 4 1 1 1 1 4 4 4 4 1 1 1 1 4 4 4 4 1 1 1 1 4 4 4 4 1 1 1 1 4 4 4 4 1 1 1 1 4 4 4 4 1 1 1 1 4 4 4 4 1 1 1 1 4 4 4 4 1 1 1 1 4 4 4 4
1 1 1 1 4 4 4 4 1 1 1 1 4 4 4 4 1 1 1 1 4 4 4 4 1 1 1 1 4 4 4 4 1 1 1 1 4 4 4 4 1 1 1 1 4 4 4 4 1 1 1 1 4 4 4 4 1 1 1 1 4 4 4 4 1 1 1 1 4 4 4 4 1 1 1 1 4 4 4 4 1 1 1 1 4 4 4 4 1 1 1 1 4 4 4 4 1 1 1 1 4 4 4 4 1 1 1 1 4 4 4 4 1 1 1 1 4 4 4 4 1 1 1 1 4 4 4 4
4 4 4 4 1 1 1 1 4 4 4 4 1 1 1 1 4 4 4 4 1 1 1 1 4 4 4 4 1 1 1 1 4 4 4 4 1 1 1 1 4 4 4 4 1 1 1 1 4 4 4 4 1 1 1 1 4 4 4 4 1 1 1 1 4 4 4 4 1 1 1 1 4 4 4 4 1 1 1 1 4 4 4 4 1 1 1 1 4 4 4 4 1 1 1 1 4 4 4 4 1 1 1 1 4 4 4 4 1 1 1 1 4 4 4 4 1 1 1 1 4 4 4 4 1 1 1 1
4 4 4 4 1 1 1 1 4 4 4 4 1 1 1 1 4 4 4 4 1 1 1 1 4 4 4 4 1 1 1 1 4 4 4 4 1 1 1 1 4 4 4 4 1 1 1 1 4 4 4 4 1 1 1 1 4 4 4 4 1 1 1 1 4 4 4 4 1 1 1 1 4 4 4 4 1 1 1 1 4 4 4 4 1 1 1 1 4 4 4 4 1 1 1 1 4 4 4 4 1 1 1 1 4 4 4 4 1 1 1 1 4 4 4 4 1 1 1 1 4 4 4 4 1 1 1 1
4 4 4 4 1 1 1 1 4 4 4 4 1 1 1 1 4 4 4 4 1 1 1 1 4 4 4 4 1 1 1 1 4 4 4 4 1 1 1 1 4 4 4 4 1 1 1 1 4 4 4 4 1 1 1 1 4 4 4 4 1 1 1 1 4 4 4 4 1 1 1 1 4 4 4 4 1 1 1 1 4 4 4 4 1 1 1 1 4 4 4 4 1 1 1 1 4 4 4 4 1 1 1 1 4 4 4 4 1 1 1 1 4 4 4 4 1 1 1 1 4 4 4 4 1 1 1 1
4 4 4 4 1 1 1 1 4 4 4 4 1 1 1 1 4 4 4 4 1 1 1 1 4 4 4 4 1 1 1 1 4 4 4 4 1 1 1 1 4 4 4 4 1 1 1 1 4 4 4 4 1 1 1 1 4 4 4 4 1 1 1 1 4 4 4 4 1 1 1 1 4 4 4 4 1 1 1 1 4 4 4 4 1 1 1 1 4 4 4 4 1 1 1 1 4 4 4 4 1 1 1 1 4 4 4 4 1 1 1 1 4 4 4 4 1 1 1 1 4 4 4 4 1 1 1 1
4 4 4 4 1 1 1 1 4 4 4 4 1 1 1 1 4 4 4 4 1 1 1 1 4 4 4 4 1 1 1 1 4 4 4 4 1 1 1 1 4 4 4 4 1 1 1 1 4 4 4 4 1 1 1 1 4 4 4 4 1 1 1 1 4 4 4 4 1 1 1 1 4 4 4 4 1 1 1 1 4 4 4 4 1 1 1 1 4 4 4 4 1 1 1 1 4 4 4 4 1 1 1 1 4 4 4 4 1 1 1 1 4 4 4 4 1 1 1 1 4 4 4 4 1 1 1 1
4 4 4 4 1 1 1 1 4 4 4 4 1 1 1 1 4 4 4 4 1 1 1 1 4 4 4 4 1 1 1 1 4 4 4 4 1 1 1 1 4 4 4 4 1 1 1 1 4 4 4 4 1 1 1 1 4 4 4 4 1 1 1 1 4 4 4 4 1 1 1 1 4 4 4 4 1 1 1 1 4 4 4 4 1 1 1 1 4 4 4 4 1 1 1 1 4 4 4 4 1 1 1 1 4 4 4 4 1 1 1 1 4 4 4 4 1 1 1 1 4 4 4 4 1 1 1 1
4 4 4 4 1 1 1 1 4 4 4 4 1 1 1 1 4 4 4 4 1 1 1 1 4 4 4 4 1 1 1 1 4 4 4 4 1 1 1 1 4 4 4 4 1 1 1 1 4 4 4 4 1 1 1 1 4 4 4 4 1 1 1 1 4 4 4 4 1 1 1 1 4 4 4 4 1 1 1 1 4 4 4 4 1 1 1 1 4 4 4 4 1 1 1 1 4 4 4 4 1 1 1 1 4 4 4 4 1 1 1 1 4 4 4 4 1 1 1 1 4 4 4 4 1 1 1 1
4 4 4 4 1 1 1 1 4 4 4 4 1 1 1 1 4 4 4 4 1 1 1 1 4 4 4 4 1 1 1 1 4 4 4 4 1 1 1 1 4 4 4 4 1 1 1 1 4 4 4 4 1 1 1 1 4 4 4 4 1 1 1 1 4 4 4 4 1 1 1 1 4 4 4 4 1 1 1 1 4 4 4 4 1 1 1 1 4 4 4 4 1 1 1 1 4 4 4 4 1 1 1 1 4 4 4 4 1 1 1 1 4 4 4 4 1 1 1 1 4 4 4 4 1 1 1 1
1 1 1 1 4 4 4 4 1 1 1 1 4 4 4 4 1 1 1 1 4 4 4 4 1 1 1 1 4 4 4 4 1 1 1 1 4 4 4 4 1 1 1 1 4 4 4 4 1 1 1 1 4 4 4 4 1 1 1 1 4 4 4 4 1 1 1 1 4 4 4 4 1 1 1 1 4 4 4 4 1 1 1 1 4 4 4 4 1 1 1 1 4 4 4 4 1 1 1 1 4 4 4 4 1 1 1 1 4 4 4 4 1 1 1 1 4 4 4 4 1 1 1 1 4 4 4 4
1 1 1 1 4 4 4 4 1 1 1 1 4 4 4 4 1 1 1 1 4 4 4 4 1 1 1 1 4 4 4 4 1 1 1 1 4 4 4 4 1 1 1 1 4 4 4 4 1 1 1 1 4 4 4 4 1 1 1 1 4 4 4 4 1 1 1 1 4 4 4 4 1 1 1 1 4 4 4 4 1 1 1 1 4 4 4 4 1 1 1 1 4 4 4 4 1 1 1 1 4 4 4 4 1 1 1 1 4 4 4 4 1 1 1 1 4 4 4 4 1 1 1 1 4 4 4 4
1 1 1 1 4 4 4 4 1 1 1 1 4 4 4 4 1 1 1 1 4 4 4 4 1 1 1 1 4 4 4 4 1 1 1 1 4 4 4 4 1 1 1 1 4 4 4 4 1 1 1 1 4 4 4 4 1 1 1 1 4 4 4 4 1 1 1 1 4 4 4 4 1 1 1 1 4 4 4 4 1 1 1 1 4 4 4 4 1 1 1 1 4 4 4 4 1 1 1 1 4 4 4 4 1 1 1 1 4 4 4 4 1 1 1 1 4 4 4 4 1 1 1 1 4 4 4 4
1 1 1 1 4 4 4 4 1 1 1 1 4 4 4 4 1 1 1 1 4 4 4 4 1 1 1 1 4 4 4 4 1 1 1 1 4 4 4 4 1 1 1 1 4 4 4 4 1 1 1 1 4 4 4 4 1 1 1 1 4 4 4 4 1 1 1 1 4 4 4 4 1 1 1 1 4 4 4 4 1 1 1 1 4 4 4 4 1 1 1 1 4 4 4 4 1 1 1 1 4 4 4 4 1 1 1 1 4 4 4 4 1 1 1 1 4 4 4 4 1 1 1 1 4 4 4 4
1 1 1 1 4 4 4 4 1 1 1 1 4 4 4 4 1 1 1 1 4 4 4 4 1 1 1 1 4 4 4 4 1 1 1 1 4 4 4 4 1 1 1 1 4 4 4 4 1 1 1 1 4 4 4 4 1 1 1 1 4 4 4 4 1 1 1 1 4 4 4 4 1 1 1 1 4 4 4 4 1 1 1 1 4 4 4 4 1 1 1 1 4 4 4 4 1 1 1 1 4 4 4 4 1 1 1 1 4 4 4 4 1 1 1 1 4 4 4 4 1 1 1 1 4 4 4 4
1 1 1 1 4 4 4 4 1 1 1 1 4 4 4 4 1 1 1 1 4 4 4 4 1 1 1 1 4 4 4 4 1 1 1 1 4 4 4 4 1 1 1 1 4 4 4 4 1 1 1 1 4 4 4 4 1 1 1 1 4 4 4 4 1 1 1 1 4 4 4 4 1 1 1 1 4 4 4 4 1 1 1 1 4 4 4 4 1 1 1 1 4 4 4 4 1 1 1 1 4 4 4 4 1 1 1 1 4 4 4 4 1 1 1 1 4 4 4 4 1 1 1 1 4 4 4 4
1 1 1 1 4 4 4 4 1 1 1 1 4 4 4 4 1 1 1 1 4 4 4 4 1 1 1 1 4 4 4 4 1 1 1 1 4 4 4 4 1 1 1 1 4 4 4 4 1 1 1 1 4 4 4 4 1 1 1 1 4 4 4 4 1 1 1 1 4 4 4 4 1 1 1 1 4 4 4 4 1 1 1 1 4 4 4 4 1 1 1 1 4 4 4 4 1 1 1 1 4 4 4 4 1 1 1 1 4 4 4 4 1 1 1 1 4 4 4 4 1 1 1 1 4 4 4 4
1 1 1 1 4 4 4 4 1 1 1 1 4 4 4 4 1 1 1 1 4 4 4 4 1 1 1 1 4 4 4 4 1 1 1 1 4 4 4 4 1 1 1 1 4 4 4 4 1 1 1 1 4 4 4 4 1 1 1 1 4 4 4 4 1 1 1 1 4 4 4 4 1 1 1 1 4 4 4 4 1 1 1 1 4 4 4 4 1 1 1 1 4 4 4 4 1 1 1 1 4 4 4 4 1 1 1 1 4 4 4 4 1 1 1 1 4 4 4 4 1 1 1 1 4 4 4 4
4 4 4 4 1 1 1 1 4 4 4 4 1 1 1 1 4 4 4 4 1 1 1 1 4 4 4 4 1 1 1 1 4 4 4 4 1 1 1 1 4 4 4 4 1 1 1 1 4 4 4 4 1 1 1 1 4 4 4 4 1 1 1 1 4 4 4 4 1 1 1 1 4 4 4 4 1 1 1 1 4 4 4 4 1 1 1 1 4 4 4 4 1 1 1 1 4 4 4 4 1 1 1 1 4 4 4 4 1 1 1 1 4 4 4 4 1 1 1 1 4 4 4 4 1 1 1 1
4 4 4 4 1 1 1 1 4 4 4 4 1 1 1 1 4 4 4 4 1 1 1 1 4 4 4 4 1 1 1 1 4 4 4 4 1 1 1 1 4 4 4 4 1 1 1 1 4 4 4 4 1 1 1 1 4 4 4 4 1 1 1 1 4 4 4 4 1 1 1 1 4 4 4 4 1 1 1 1 4 4 4 4 1 1 1 1 4 4 4 4 1 1 1 1 4 4 4 4 1 1 1 1 4 4 4 4 1 1 1 1 4 4 4 4 1 1 1 1 4 4 4 4 1 1 1 1
4 4 4 4 1 1 1 1 4 4 4 4 1 1 1 1 4 4 4 4 1 1 1 1 4 4 4 4 1 1 1 1 4 4 4 4 1 1 1 1 4 4 4 4 1 1 1 1 4 4 4 4 1 1 1 1 4 4 4 4 1 1 1 1 4 4 4 4 1 1 1 1 4 4 4 4 1 1 1 1 4 4 4 4 1 1 1 1 4 4 4 4 1 1 1 1 4 4 4 4 1 1 1 1 4 4 4 4 1 1 1 1 4 4 4 4 1 1 1 1 4 4 4 4 1 1 1 1
4 4 4 4 1 1 1 1 4 4 4 4 1 1 1 1 4 4 4 4 1 1 1 1 4 4 4 4 1 1 1 1 4 4 4 4 1 1 1 1 4 4 4 4 1 1 1 1 4 4 4 4 1 1 1 1 4 4 4 4 1 1 1 1 4 4 4 4 1 1 1 1 4 4 4 4 1 1 1 1 4 4 4 4 1 1 1 1 4 4 4 4 1 1 1 1 4 4 4 4 1 1 1 1 4 4 4 4 1 1 1 1 4 4 4 4 1 1 1 1 4 4 4 4 1 1 1 1
4 4 4 4 1 1 1 1 4 4 4 4 1 1 1 1 4 4 4 4 1 1 1 1 4 4 4 4 1 1 1 1 4 4 4 4 1 1 1 1 4 4 4 4 1 1 1 1 4 4 4 4 1 1 1 1 4 4 4 4 1 1 1 1 4 4 4 4 1 1 1 1 4 4 4 4 1 1 1 1 4 4 4 4 1 1 1 1 4 4 4 4 1 1 1 1 4 4 4 4 1 1 1 1 4 4 4 4 1 1 1 1 4 4 4 4 1 1 1 1 4 4 4 4 1 1 1 1
4 4 4 4 1 1 1 1 4 4 4 4 1 1 1 1 4 4 4 4 1 1 1 1 4 4 4 4 1 1 1 1 4 4 4 4 1 1 1 1 4 4 4 4 1 1 1 1 4 4 4 4 1 1 1 1 4 4 4 4 1 1 1 1 4 4 4 4 1 1 1 1 4 4 4 4 1 1 1 1 4 4 4 4 1 1 1 1 4 4 4 4 1 1 1 1 4 4 4 4 1 1 1 1 4 4 4 4 1 1 1 1 4 4 4 4 1 1 1 1 4 4 4 4 1 1 1 1
4 4 4 4 1 1 1 1 4 4 4 4 1 1 1 1 4 4 4 4 1 1 1 1 4 4 4 4 1 1 1 1 4 4 4 4 1 1 1 1 4 4 4 4 1 1 1 1 4 4 4 4 1 1 1 1 4 4 4 4 1 1 1 1 4 4 4 4 1 1 1 1 4 4 4 4 1 1 1 1 4 4 4 4 1 1 1 1 4 4 4 4 1 1 1 1 4 4 4 4 1 1 1 1 4 4 4 4 1 1 1 1 4 4 4 4 1 1 1 1 4 4 4 4 1 1 1 1
4 4 4 4 1 1 1 1 4 4 4 4 1 1 1 1 4 4 4 4 1 1 1 1 4 4 4 4 1 1 1 1 4 4 4 4 1 1 1 1 4 4 4 4 1 1 1 1 4 4 4 4 1 1 1 1 4 4 4 4 1 1 1 1 4 4 4 4 1 1 1 1 4 4 4 4 1 1 1 1 4 4 4 4 1 1 1 1 4 4 4 4 1 1 1 1 4 4 4 4 1 1 1 1 4 4 4 4 1 1 1 1 4 4 4 4 1 1 1 1 4 4 4 4 1 1 1 1
1 1 1 1 4 4 4 4 1 1 1 1 4 4 4 4 1 1 1 1 4 4 4 4 1 1 1 1 4 4 4 4 1 1 1 1 4 4 4 4 1 1 1 1 4 4 4 4 1 1 1 1 4 4 4 4 1 1 1 1 4 4 4 4 1 1 1 1 4 4 4 4 1 1 1 1 4 4 4 4 1 1 1 1 4 4 4 4 1 1 1 1 4 4 4 4 1 1 1 1 4 4 4 4 1 1 1 1 4 4 4 4 1 1 1 1 4 4 4 4 1 1 1 1 4 4 4 4
1 1 1 1 4 4 4 4 1 1 1 1 4 4 4 4 1 1 1 1 4 4 4 4 1 1 1 1 4 4 4 4 1 1 1 1 4 4 4 4 1 1 1 1 4 4 4 4 1 1 1 1 4 4 4 4 1 1 1 1 4 4 4 4 1 1 1 1 4 4 4 4 1 1 1 1 4 4 4 4 1 1 1 1 4 4 4 4 1 1 1 1 4 4 4 4 1 1 1 1 4 4 4 4 1 1 1 1 4 4 4 4 1 1 1 1 4 4 4 4 1 1 1 1 4 4 4 4
1 1 1 1 4 4 4 4 1 1 1 1 4 4 4 4 1 1 1 1 4 4 4 4 1 1 1 1 4 4 4 4 1 1 1 1 4 4 4 4 1 1 1 1 4 4 4 4 1 1 1 1 4 4 4 4 1 1 1 1 4 4 4 4 1 1 1 1 4 4 4 4 1 1 1 1 4 4 4 4 1 1 1 1 4 4 4 4 1 1 1 1 4 4 4 4 1 1 1 1 4 4 4 4 1 1 1 1 4 4 4 4 1 1 1 1 4 4 4 4 1 1 1 1 4 4 4 4
1 1 1 1 4 4 4 4 1 1 1 1 4 4 4 4 1 1 1 1 4 4 4 4 1 1 1 1 4 4 4 4 1 1 1 1 4 4 4 4 1 1 1 1 4 4 4 4 1 1 1 1 4 4 4 4 1 1 1 1 4 4 4 4 1 1 1 1 4 4 4 4 1 1 1 1 4 4 4 4 1 1 1 1 4 4 4 4 1 1 1 1 4 4 4 4 1 1 1 1 4 4 4 4 1 1 1 1 4 4 4 4 1 1 1 1 4 4 4 4 1 1 1 1 4 4 4 4
1 1 1 1 4 4 4 4 1 1 1 1 4 4 4 4 1 1 1 1 4 4 4 4 1 1 1 1 4 4 4 4 1 1 1 1 4 4 4 4 1 1 1 1 4 4 4 4 1 1 1 1 4 4 4 4 1 1 1 1 4 4 4 4 1 1 1 1 4 4 4 4 1 1 1 1 4 4 4 4 1 1 1 1 4 4 4 4 1 1 1 1 4 4 4 4 1 1 1 1 4 4 4 4 1 1 1 1 4 4 4 4 1 1 1 1 4 4 4 4 1 1 1 1 4 4 4 4
1 1 1 1 4 4 4 4 1 1 1 1 4 4 4 4 1 1 1 1 4 4 4 4 1 1 1 1 4 4 4 4 1 1 1 1 4 4 4 4 1 1 1 1 4 4 4 4 1 1 1 1 4 4 4 4 1 1 1 1 4 4 4 4 1 1 1 1 4 4 4 4 1 1 1 1 4 4 4 4 1 1 1 1 4 4 4 4 1 1 1 1 4 4 4 4 1 1 1 1 4 4 4 4 1 1 1 1 4 4 4 4 1 1 1 1 4 4 4 4 1 1 1 1 4 4 4 4
1 1 1 1 4 4 4 4 1 1 1 1 4 4 4 4 1 1 1 1 4 4 4 4 1 1 1 1 4 4 4 4 1 1 1 1 4 4 4 4 1 1 1 1 4 4 4 4 1 1 1 1 4 4 4 4 1 1 1 1 4 4 4 4 1 1 1 1 4 4 4 4 1 1 1 1 4 4 4 4 1 1 1 1 4 4 4 4 1 1 1 1 4 4 4 4 1 1 1 1 4 4 4 4 1 1 1 1 4 4 4 4 1 1 1 1 4 4 4 4 1 1 1 1 4 4 4 4
1 1 1 1 4 4 4 4 1 1 1 1 4 4 4 4 1 1 1 1 4 4 4 4 1 1 1 1 4 4 4 4 1 1 1 1 4 4 4 4 1 1 1 1 4 4 4 4 1 1 1 1 4 4 4 4 1 1 1 1 4 4 4 4 1 1 1 1 4 4 4 4 1 1 1 1 4 4 4 4 1 1 1 1 4 4 4 4 1 1 1 1 4 4 4 4 1 1 1 1 4 4 4 4 1 1 1 1 4 4 4 4 1 1 1 1 4 4 4 4 1 1 1 1 4 4 4 4
4 4 4 4 1 1 1 1 4 4 4 4 1 1 1 1 4 4 4 4 1 1 1 1 4 4 4 4 1 1 1 1 4 4 4 4 1 1 1 1 4 4 4 4 1 1 1 1 4 4 4 4 1 1 1 1 4 4 4 4 1 1 1 1 4 4 4 4 1 1 1 1 4 4 4 4 1 1 1 1 4 4 4 4 1 1 1 1 4 4 4 4 1 1 1 1 4 4 4 4 1 1 1 1 4 4 4 4 1 1 1 1 4 4 4 4 1 1 1 1 4 4 4 4 1 1 1 1
4 4 4 4 1 1 1 1 4 4 4 4 1 1 1 1 4 4 4 4 1 1 1 1 4 4 4 4 1 1 1 1 4 4 4 4 1 1 1 1 4 4 4 4 1 1 1 1 4 4 4 4 1 1 1 1 4 4 4 4 1 1 1 1 4 4 4 4 1 1 1 1 4 4 4 4 1 1 1 1 4 4 4 4 1 1 1 1 4 4 4 4 1 1 1 1 4 4 4 4 1 1 1 1 4 4 4 4 1 1 1 1 4 4 4 4 1 1 1 1 4 4 4 4 1 1 1 1
4 4 4 4 1 1 1 1 4 4 4 4 1 1 1 1 4 4 4 4 1 1 1 1 4 4 4 4 1 1 1 1 4 4 4 4 1 1 1 1 4 4 4 4 1 1 1 1 4 4 4 4 1 1 1 1 4 4 4 4 1 1 1 1 4 4 4 4 1 1 1 1 4 4 4 4 1 1 1 1 4 4 4 4 1 1 1 1 4 4 4 4 1 1 1 1 4 4 4 4 1 1 1 1 4 4 4 4 1 1 1 1 4 4 4 4 1 1 1 1 4 4 4 4 1 1 1 1
4 4 4 4 1 1 1 1 4 4 4 4 1 1 1 1 4 4 4 4 1 1 1 1 4 4 4 4 1 1 1 1 4 4 4 4 1 1 1 1 4 4 4 4 1 1 1 1 4 4 4 4 1 1 1 1 4 4 4 4 1 1 1 1 4 4 4 4 1 1 1 1 4 4 4 4 1 1 1 1 4 4 4 4 1 1 1 1 4 4 4 4 1 1 1 1 4 4 4 4 1 1 1 1 4 4 4 4 1 1 1 1 4 4 4 4 1 1 1 1 4 4 4 4 1 1 1 1
4 4 4 4 1 1 1 1 4 4 4 4 1 1 1 1 4 4 4 4 1 1 1 1 4 4 4 4 1 1 1 1 4 4 4 4 1 1 1 1 4 4 4 4 1 1 1 1 4 4 4 4 1 1 1 1 4 4 4 4 1 1 1 1 4 4 4 4 1 1 1 1 4 4 4 4 1 1 1 1 4 4 4 4 1 1 1 1 4 4 4 4 1 1 1 1 4 4 4 4 1 1 1 1 4 4 4 4 1 1 1 1 4 4 4 4 1 1 1 1 4 4 4 4 1 1 1 1
4 4 4 4 1 1 1 1 4 4 4 4 1 1 1 1 4 4 4 4 1 1 1 1 4 4 4 4 1 1 1 1 4 4 4 4 1 1 1 1 4 4 4 4 1 1 1 1 4 4 4 4 1 1 1 1 4 4 4 4 1 1 1 1 4 4 4 4 1 1 1 1 4 4 4 4 1 1 1 1 4 4 4 4 1 1 1 1 4 4 4 4 1 1 1 1 4 4 4 4 1 1 1 1 4 4 4 4 1 1 1 1 4 4 4 4 1 1 1 1 4 4 4 4 1 1 1 1
4 4 4 4 1 1 1 1 4 4 4 4 1 1 1 1 4 4 4 4 1 1 1 1 4 4 4 4 1 1 1 1 4 4 4 4 1 1 1 1 4 4 4 4 1 1 1 1 4 4 4 4 1 1 1 1 4 4 4 4 1 1 1 1 4 4 4 4 1 1 1 1 4 4 4 4 1 1 1 1 4 4 4 4 1 1 1 1 4 4 4 4 1 1 1 1 4 4 4 4 1 1 1 1 4 4 4 4 1 1 1 1 4 4 4 4 1 1 1 1 4 4 4 4 1 1 1 1
4 4 4 4 1 1 1 1 4 4 4 4 1 1 1 1 4 4 4 4 1 1 1 1 4 4 4 4 1 1 1 1 4 4 4 4 1 1 1 1 4 4 4 4 1 1 1 1 4 4 4 4 1 1 1 1 4 4 4 4 1 1 1 1 4 4 4 4 1 1 1 1 4 4 4 4 1 1 1 1 4 4 4 4 1 1 1 1 4 4 4 4 1 1 1 1 4 4 4 4 1 1 1 1 4 4 4 4 1 1 1 1 4 4 4 4 1 1 1 1 4 4 4 4 1 1 1 1
1 1 1 1 4 4 4 4 1 1 1 1 4 4 4 4 1 1 1 1 4 4 4 4 1 1 1 1 4 4 4 4 1 1 1 1 4 4 4 4 1 1 1 1 4 4 4 4 1 1 1 1 4 4 4 4 1 1 1 1 4 4 4 4 1 1 1 1 4 4 4 4 1 1 1 1 4 4 4 4 1 1 1 1 4 4 4 4 1 1 1 1 4 4 4 4 1 1 1 1 4 4 4 4 1 1 1 1 4 4 4 4 1 1 1 1 4 4 4 4 1 1 1 1 4 4 4 4
1 1 1 1 4 4 4 4 1 1 1 1 4 4 4 4 1 1 1 1 4 4 4 4 1 1 1 1 4 4 4 4 1 1 1 1 4 4 4 4 1 1 1 1 4 4 4 4 1 1 1 1 4 4 4 4 1 1 1 1 4 4 4 4 1 1 1 1 4 4 4 4 1 1 1 1 4 4 4 4 1 1 1 1 4 4 4 4 1 1 1 1 4 4 4 4 1 1 1 1 4 4 4 4 1 1 1 1 4 4 4 4 1 1 1 1 4 4 4 4 1 1 1 1 4 4 4 4
1 1 1 1 4 4 4 4 1 1 1 1 4 4 4 4 1 1 1 1 4 4 4 4 1 1 1 1 4 4 4 4 1 1 1 1 4 4 4 4 1 1 1 1 4 4 4 4 1 1 1 1 4 4 4 4 1 1 1 1 4 4 4 4 1 1 1 1 4 4 4 4 1 1 1 1 4 4 4 4 1 1 1 1 4 4 4 4 1 1 1 1 4 4 4 4 1 1 1 1 4 4 4 4 1 1 1 1 4 4 4 4 1 1 1 1 4 4 4 4 1 1 1 1 4 4 4 4
1 1 1 1 4 4 4 4 1 1 1 1 4 4 4 4 1 1 1 1 4 4 4 4 1 1 1 1 4 4 4 4 1 1 1 1 4 4 4 4 1 1 1 1 4 4 4 4 1 1 1 1 4 4 4 4 1 1 1 1 4 4 4 4 1 1 1 1 4 4 4 4 1 1 1 1 4 4 4 4 1 1 1 1 4 4 4 4 1 1 1 1 4 4 4 4 1 1 1 1 4 4 4 4 1 1 1 1 4 4 4 4 1 1 1 1 4 4 4 4 1 1 1 1 4 4 4 4
1 1 1 1 4 4 4 4 1 1 1 1 4 4 4 4 1 1 1 1 4 4 4 4 1 1 1 1 4 4 4 4 1 1 1 1 4 4 4 4 1 1 1 1 4 4 4 4 1 1 1 1 4 4 4 4 1 1 1 1 4 4 4 4 1 1 1 1 4 4 4 4 1 1 1 1 4 4 4 4 1 1 1 1 4 4 4 4 1 1 1 1 4 4 4 4 1 1 1 1 4 4 4 4 1 1 1 1 4 4 4 4 1 1 1 1 4 4 4 4 1 1 1 1 4 4 4 4
1 1 1 1 4 4 4 4 1 1 1 1 4 4 4 4 1 1 1 1 4 4 4 4 1 1 1 1 4 4 4 4 1 1 1 1 4 4 4 4 1 1 1 1 4 4 4 4 1 1 1 1 4 4 4 4 1 1 1 1 4 4 4 4 1 1 1 1 4 4 4 4 1 1 1 1 4 4 4 4 1 1 1 1 4 4 4 4 1 1 1 1 4 4 4 4 1 1 1 1 4 4 4 4 1 1 1 1 4 4 4 4 1 1 1 1 4 4 4 4 1 1 1 1 4 4 4 4
1 1 1 1 4 4 4 4 1 1 1 1 4 4 4 4 1 1 1 1 4 4 4 4 1 1 1 1 4 4 4 4 1 1 1 1 4 4 4 4 1 1 1 1 4 4 4 4 1 1 1 1 4 4 4 4 1 1 1 1 4 4 4 4 1 1 1 1 4 4 4 4 1 1 1 1 4 4 4 4 1 1 1 1 4 4 4 4 1 1 1 1 4 4 4 4 1 1 1 1 4 4 4 4 1 1 1 1 4 4 4 4 1 1 1 1 4 4 4 4 1 1 1 1 4 4 4 4
1 1 1 1 4 4 4 4 1 1 1 1 4 4 4 4 1 1 1 1 4 4 4 4 1 1 1 1 4 4 4 4 1 1 1 1 4 4 4 4 1 1 1 1 4 4 4 4 1 1 1 1 4 4 4 4 1 1 1 1 4 4 4 4 1 1 1 1 4 4 4 4 1 1 1 1 4 4 4 4 1 1 1 1 4 4 4 4 1 1 1 1 4 4 4 4 1 1 1 1 4 4 4 4 1 1 1 1 4 4 4 4 1 1 1 1 4 4 4 4 1 1 1 1 4 4 4 4
