ncols 64
nrows 48
xllcorner 200.0
yllcorner 200.0
cellsize 6.25
NODATA_value -9999
4 4 4 4 1 1 1 1 4 4 4 4 1 1 1 1 4 4 4 4 1 1 1 1 4 4 4 4 1 1 1 1 4 4 4 4 1 1 1 1 4 4 4 4 1 1 1 1 4 4 4 4 1 1 1 1 4 4 4 4 1 1 1 1
4 4 4 4 1 1 1 1 4 4 4 4 1 1 1 1 4 4 4 4 1 1 1 1 4 4 4 4 1 1 1 1 4 4 4 4 1 1 1 1 4 4 4 4 1 1 1 1 4 4 4 4 1 1 1 1 4 4 4 4 1 1 1 1
4 4 4 4 1 1 1 1 4 4 4 4 1 1 1 1 4 4 4 4 1 1 1 1 4 4 4 4 1 1 1 1 4 4 4 4 1 1 1 1 4 4 4 4 1 1 1 1 4 4 4 4 1 1 1 1 4 4 4 4 1 1 1 1
4 4 4 4 1 1 1 1 4 4 4 4 1 1 1 1 4 4 4 4 1 1 1 1 4 4 4 4 1 1 1 1 4 4 4 4 1 1 1 1 4 4 4 4 1 1 1 1 4 4 4 4 1 1 1 1 4 4 4 4 1 1 1 1
4 4 4 4 1 1 1 1 4 4 4 4 1 1 1 1 4 4 4 4 1 1 1 1 4 4 4 4 1 1 1 1 4 4 4 4 1 1 1 1 4 4 4 4 1 1 1 1 4 4 4 4 1 1 1 1 4 4 4 4 1 1 1 1
4 4 4 4 1 1 1 1 4 4 4 4 1 1 1 1 4 4 4 4 1 1 1 1 4 4 4 4 1 1 1 1 4 4 4 4 1 1 1 1 4 4 4 4 1 1 1 1 4 4 4 4 1 1 1 1 4 4 4 4 1 1 1 1
4 4 4 4 1 1 1 1 4 4 4 4 1 1 1 1 4 4 4 4 1 1 1 1 4 4 4 4 1 1 1 1 4 4 4 4 1 1 1 1 4 4 4 4 1 1 1 1 4 4 4 4 1 1 1 1 4 4 4 4 1 1 1 1
4 4 4 4 1 1 1 1 4 4 4 4 1 1 1 1 4 4 4 4 1 1 1 1 4 4 4 4 1 1 1 1 4 4 4 4 1 1 1 1 4 4 4 4 1 1 1 1 4 4 4 4 1 1 1 1 4 4 4 4 1 1 1 1
1 1 1 1 4 4 4 4 1 1 1 1 4 4 4 4 1 1 1 1 4 4 4 4 1 1 1 1 4 4 4 4 1 1 1 1 4 4 4 4 1 1 1 1 4 4 4 4 1 1 1 1 4 4 4 4 1 1 1 1 4 4 4 4
1 1 1 1 4 4 4 4 1 1 1 1 4 4 4 4 1 1 1 1 4 4 4 4 1 1 1 1 4 4 4 4 1 1 1 1 4 4 4 4 1 1 1 1 4 4 4 4 1 1 1 1 4 4 4 4 1 1 1 1 4 4 4 4
1 1 1 1 4 4 4 4 1 1 1 1 4 4 4 4 1 1 1 1 4 4 4 4 1 1 1 1 4 4 4 4 1 1 1 1 4 4 4 4 1 1 1 1 4 4 4 4 1 1 1 1 4 4 4 4 1 1 1 1 4 4 4 4
1 1 1 1 4 4 4 4 1 1 1 1 4 4 4 4 1 1 1 1 4 4 4 4 1 1 1 1 4 4 4 4 1 1 1 1 4 4 4 4 1 1 1 1 4 4 4 4 1 1 1 1 4 4 4 4 1 1 1 1 4 4 4 4
1 1 1 1 4 4 4 4 1 1 1 1 4 4 4 4 1 1 1 1 4 4 4 4 1 1 1 1 4 4 4 4 1 1 1 1 4 4 4 4 1 1 1 1 4 4 4 4 1 1 1 1 4 4 4 4 1 1 1 1 4 4 4 4
1 1 1 1 4 4 4 4 1 1 1 1 4 4 4 4 1 1 1 1 4 4 4 4 1 1 1 1 4 4 4 4 1 1 1 1 4 4 4 4 1 1 1 1 4 4 4 4 1 1 1 1 4 4 4 4 1 1 1 1 4 4 4 4
1 1 1 1 4 4 4 4 1 1 1 1 4 4 4 4 1 1 1 1 4 4 4 4 1 1 1 1 4 4 4 4 1 1 1 1 4 4 4 4 1 1 1 1 4 4 4 4 1 1 1 1 4 4 4 4 1 1 1 1 4 4 4 4
1 1 1 1 4 4 4 4 1 1 1 1 4 4 4 4 1 1 1 1 4 4 4 4 1 1 1 1 4 4 4 4 1 1 1 1 4 4 4 4 1 1 1 1 4 4 4 4 1 1 1 1 4 4 4 4 1 1 1 1 4 4 4 4
4 4 4 4 1 1 1 1 4 4 4 4 1 1 1 1 4 4 4 4 1 1 1 1 4 4 4 4 1 1 1 1 4 4 4 4 1 1 1 1 4 4 4 4 1 1 1 1 4 4 4 4 1 1 1 1 4 4 4 4 1 1 1 1
4 4 4 4 1 1 1 1 4 4 4 4 1 1 1 1 4 4 4 4 1 1 1 1 4 4 4 4 1 1 1 1 4 4 4 4 1 1 1 1 4 4 4 4 1 1 1 1 4 4 4 4 1 1 1 1 4 4 4 4 1 1 1 1
4 4 4 4 1 1 1 1 4 4 4 4 1 1 1 1 4 4 4 4 1 1 1 1 4 4 4 4 1 1 1 1 4 4 4 4 1 1 1 1 4 4 4 4 1 1 1 1 4 4 4 4 1 1 1 1 4 4 4 4 1 1 1 1
4 4 4 4 1 1 1 1 4 4 4 4 1 1 1 1 4 4 4 4 1 1 1 1 4 4 4 4 1 1 1 1 4 4 4 4 1 1 1 1 4 4 4 4 1 1 1 1 4 4 4 4 1 1 1 1 4 4 4 4 1 1 1 1
4 4 4 4 1 1 1 1 4 4 4 4 1 1 1 1 4 4 4 4 1 1 1 1 4 4 4 4 1 1 1 1 4 4 4 4 1 1 1 1 4 4 4 4 1 1 1 1 4 4 4 4 1 1 1 1 4 4 4 4 1 1 1 1
4 4 4 4 1 1 1 1 4 4 4 4 1 1 1 1 4 4 4 4 1 1 1 1 4 4 4 4 1 1 1 1 4 4 4 4 1 1 1 1 4 4 4 4 1 1 1 1 4 4 4 4 1 1 1 1 4 4 4 4 1 1 1 1
4 4 4 4 1 1 1 1 4 4 4 4 1 1 1 1 4 4 4 4 1 1 1 1 4 4 4 4 1 1 1 1 4 4 4 4 1 1 1 1 4 4 4 4 1 1 1 1 4 4 4 4 1 1 1 1 4 4 4 4 1 1 1 1
4 4 4 4 1 1 1 1 4 4 4 4 1 1 1 1 4 4 4 4 1 1 1 1 4 4 4 4 1 1 1 1 4 4 4 4 1 1 1 1 4 4 4 4 1 1 1 1 4 4 4 4 1 1 1 1 4 4 4 4 1 1 1 1
1 1 1 1 4 4 4 4 1 1 1 1 4 4 4 4 1 1 1 1 4 4 4 4 1 1 1 1 4 4 4 4 1 1 1 1 4 4 4 4 1 1 1 1 4 4 4 4 1 1 1 1 4 4 4 4 1 1 1 1 4 4 4 4
1 1 1 1 4 4 4 4 1 1 1 1 4 4 4 4 1 1 1 1 4 4 4 4 1 1 1 1 4 4 4 4 1 1 1 1 4 4 4 4 1 1 1 1 4 4 4 4 1 1 1 1 4 4 4 4 1 1 1 1 4 4 4 4
1 1 1 1 4 4 4 4 1 1 1 1 4 4 4 4 1 1 1 1 4 4 4 4 1 1 1 1 4 4 4 4 1 1 1 1 4 4 4 4 1 1 1 1 4 4 4 4 1 1 1 1 4 4 4 4 1 1 1 1 4 4 4 4
1 1 1 1 4 4 4 4 1 1 1 1 4 4 4 4 1 1 1 1 4 4 4 4 1 1 1 1 4 4 4 4 1 1 1 1 4 4 4 4 1 1 1 1 4 4 4 4 1 1 1 1 4 4 4 4 1 1 1 1 4 4 4 4
1 1 1 1 4 4 4 4 1 1 1 1 4 4 4 4 1 1 1 1 4 4 4 4 1 1 1 1 4 4 4 4 1 1 1 1 4 4 4 4 1 1 1 1 4 4 4 4 1 1 1 1 4 4 4 4 1 1 1 1 4 4 4 4
1 1 1 1 4 4 4 4 1 1 1 1 4 4 4 4 1 1 1 1 4 4 4 4 1 1 1 1 4 4 4 4 1 1 1 1 4 4 4 4 1 1 1 1 4 4 4 4 1 1 1 1 4 4 4 4 1 1 1 1 4 4 4 4
1 1 1 1 4 4 4 4 1 1 1 1 4 4 4 4 1 1 1 1 4 4 4 4 1 1 1 1 4 4 4 4 1 1 1 1 4 4 4 4 1 1 1 1 4 4 4 4 1 1 1 1 4 4 4 4 1 1 1 1 4 4 4 4
1 1 1 1 4 4 4 4 1 1 1 1 4 4 4 4 1 1 1 1 4 4 4 4 1 1 1 1 4 4 4 4 1 1 1 1 4 4 4 4 1 1 1 1 4 4 4 4 1 1 1 1 4 4 4 4 1 1 1 1 4 4 4 4
4 4 4 4 1 1 1 1 4 4 4 4 1 1 1 1 4 4 4 4 1 1 1 1 4 4 4 4 1 1 1 1 4 4 4 4 1 1 1 1 4 4 4 4 1 1 1 1 4 4 4 4 1 1 1 1 4 4 4 4 1 1 1 1
4 4 4 4 1 1 1 1 4 4 4 4 1 1 1 1 4 4 4 4 1 1 1 1 4 4 4 4 1 1 1 1 4 4 4 4 1 1 1 1 4 4 4 4 1 1 1 1 4 4 4 4 1 1 1 1 4 4 4 4 1 1 1 1
4 4 4 4 1 1 1 1 4 4 4 4 1 1 1 1 4 4 4 4 1 1 1 1 4 4 4 4 1 1 1 1 4 4 4 4 1 1 1 1 4 4 4 4 1 1 1 1 4 4 4 4 1 1 1 1 4 4 4 4 1 1 1 1
4 4 4 4 1 1 1 1 4 4 4 4 1 1 1 1 4 4 4 4 1 1 1 1 4 4 4 4 1 1 1 1 4 4 4 4 1 1 1 1 4 4 4 4 1 1 1 1 4 4 4 4 1 1 1 1 4 4 4 4 1 1 1 1
4 4 4 4 1 1 1 1 4 4 4 4 1 1 1 1 4 4 4 4 1 1 1 1 4 4 4 4 1 1 1 1 4 4 4 4 1 1 1 1 4 4 4 4 1 1 1 1 4 4 4 4 1 1 1 1 4 4 4 4 1 1 1 1
4 4 4 4 1 1 1 1 4 4 4 4 1 1 1 1 4 4 4 4 1 1 1 1 4 4 4 4 1 1 1 1 4 4 4 4 1 1 1 1 4 4 4 4 1 1 1 1 4 4 4 4 1 1 1 1 4 4 4 4 1 1 1 1
4 4 4 4 1 1 1 1 4 4 4 4 1 1 1 1 4 4 4 4 1 1 1 1 4 4 4 4 1 1 1 1 4 4 4 4 1 1 1 1 4 4 4 4 1 1 1 1 4 4 4 4 1 1 1 1 4 4 4 4 1 1 1 1
4 4 4 4 1 1 1 1 4 4 4 4 1 1 1 1 4 4 4 4 1 1 1 1 4 4 4 4 1 1 1 1 4 4 4 4 1 1 1 1 4 4 4 4 1 1 1 1 4 4 4 4 1 1 1 1 4 4 4 4 1 1 1 1
1 1 1 1 4 4 4 4 1 1 1 1 4 4 4 4 1 1 1 1 4 4 4 4 1 1 1 1 4 4 4 4 1 1 1 1 4 4 4 4 1 1 1 1 4 4 4 4 1 1 1 1 4 4 4 4 1 1 1 1 4 4 4 4
1 1 1 1 4 4 4 4 1 1 1 1 4 4 4 4 1 1 1 1 4 4 4 4 1 1 1 1 4 4 4 4 1 1 1 1 4 4 4 4 1 1 1 1 4 4 4 4 1 1 1 1 4 4 4 4 1 1 1 1 4 4 4 4
1 1 1 1 4 4 4 4 1 1 1 1 4 4 4 4 1 1 1 1 4 4 4 4 1 1 1 1 4 4 4 4 1 1 1 1 4 4 4 4 1 1 1 1 4 4 4 4 1 1 1 1 4 4 4 4 1 1 1 1 4 4 4 4
1 1 1 1 4 4 4 4 1 1 1 1 4 4 4 4 1 1 1 1 4 4 4 4 1 1 1 1 4 4 4 4 1 1 1 1 4 4 4 4 1 1 1 1 4 4 4 4 1 1 1 1 4 4 4 4 1 1 1 1 4 4 4 4
1 1 1 1 4 4 4 4 1 1 1 1 4 4 4 4 1 1 1 1 4 4 4 4 1 1 1 1 4 4 4 4 1 1 1 1 4 4 4 4 1 1 1 1 4 4 4 4 1 1 1 1 4 4 4 4 1 1 1 1 4 4 4 4
1 1 1 1 4 4 4 4 1 1 1 1 4 4 4 4 1 1 1 1 4 4 4 4 1 1 1 1 4 4 4 4 1 1 1 1 4 4 4 4 1 1 1 1 4 4 4 4 1 1 1 1 4 4 4 4 1 1 1 1 4 4 4 4
1 1 1 1 4 4 4 4 1 1 1 1 4 4 4 4 1 1 1 1 4 4 4 4 1 1 1 1 4 4 4 4 1 1 1 1 4 4 4 4 1 1 1 1 4 4 4 4 1 1 1 1 4 4 4 4 1 1 1 1 4 4 4 4
1 1 1 1 4 4 4 4 1 1 1 1 4 4 4 4 1 1 1 1 4 4 4 4 1 1 1 1 4 4 4 4 1 1 1 1 4 4 4 4 1 1 1 1 4 4 4 4 1 1 1 1 4 4 4 4 1 1 1 1 4 4 4 4
